public/Tomato.svg

<svg width="357" height="303" viewBox="0 0 357 303" fill="none" xmlns="http://www.w3.org/2000/svg">
<path d="M256.44 52.2897C256.44 52.2897 254.074 48.7742 268.905 31.8274C283.737 14.8806 313.88 30.8187 313.88 30.8187C313.88 30.8187 291.318 12.3159 268.879 11.0322C246.44 9.74841 230.519 38.5627 227.913 46.5286C225.303 54.4857 231.779 52.7527 239.403 46.6398C247.027 40.527 235.863 2.24133 235.863 2.24133C235.863 2.24133 222.603 19.5471 207.992 43.1583C193.38 66.7695 185.184 70.2101 179.039 76.2538C172.904 82.2942 159.854 87.1607 152.833 85.0839C145.813 83.0072 128.942 63.0461 101.944 61.0822C74.9455 59.1184 52.2493 69.4115 52.2493 69.4115C52.2493 69.4115 76.6407 70.0474 88.8205 76.5651C101 83.0828 98.352 94.5969 105.632 96.127C112.912 97.6571 121.581 83.0262 109.393 83.7989C97.2042 84.5716 63.2871 82.9625 52.3596 97.7055C41.432 112.449 18.8952 132.88 0.624385 133.726C0.624385 133.726 42.2559 135.281 60.3644 119.396C78.473 103.511 105.91 111.846 105.91 111.846L144.164 107.521C144.164 107.521 161.611 103.829 158.056 78.9116C154.502 53.9944 156.769 33.754 162.057 32.8607L178.223 35.3797C178.223 35.3797 165.966 46.2581 176.443 69.6213C186.921 92.9845 190.163 90.4646 190.163 90.4646M173.866 101.027C188.612 94.9405 214.367 64.3698 243.032 54.7013C280.954 41.9132 331.367 61.0141 351.18 126.264C369.425 186.352 332.592 259.02 249.969 286.96C154.869 319.114 88.8854 298.301 55.5877 225.426C29.8696 169.114 55.6405 128.026 83.6877 116.808C109.622 106.432 146.107 112.487 173.866 101.027ZM113.135 129.896C140.488 119.352 163.354 127.799 175.264 149.682C182.622 163.205 199.678 209.618 204.8 225.152C209.922 240.686 213.477 266.951 180.295 275.906C150.048 284.061 128.06 276.506 108.212 255.042C88.5167 233.747 68.6352 196.582 76.1918 168.36C83.7484 140.138 97.8056 135.81 113.135 129.896ZM246.593 82.082C261.763 76.9703 293.116 72.3558 306.026 95.8876C318.927 119.423 333.277 164.611 323.994 192.077C314.714 219.552 288.519 253.675 252.604 240.031C225.433 229.71 201.376 131.789 207.958 114.986C217.399 90.8909 246.593 82.082 246.593 82.082ZM137.676 141.992C133.712 144.096 130.489 148.946 138.088 157.396C146.673 166.932 154.624 166.879 152.82 156.415C150.673 143.892 143.341 138.985 137.676 141.992ZM233.801 108.005C229.286 108.618 224.374 112.04 228.119 122.488C232.347 134.281 239.77 136.92 242.222 126.581C245.149 114.184 240.257 107.128 233.801 108.005ZM277.666 102.319C273.314 101.04 267.283 102.124 265.721 113.032C263.956 125.347 269.379 130.737 276.461 122.441C284.956 112.481 283.889 104.145 277.666 102.319ZM306.623 148.875C306.751 144.639 303.966 139.557 292.231 141.186C278.982 143.015 274.896 149.343 285.453 153.363C298.109 158.183 306.445 154.934 306.623 148.875ZM301.006 191.288C303.501 187.741 303.988 182.057 293.071 177.749C280.75 172.877 273.704 176.289 280.43 184.844C288.498 195.093 297.44 196.363 301.006 191.288ZM276.4 227.271C280.264 225.021 283.266 220.046 275.297 211.89C266.294 202.685 258.358 203.053 260.623 213.43C263.33 225.875 270.875 230.5 276.4 227.271ZM103.262 163.141C100.001 166.107 98.206 171.554 107.855 177.956C118.753 185.185 126.427 183.268 121.843 173.562C116.36 161.943 107.93 158.903 103.262 163.141ZM99.6743 214.863C100.516 219.022 104.408 223.441 115.503 219.543C128.025 215.143 130.573 208.156 119.336 206.302C105.859 204.084 98.4606 208.903 99.6743 214.863ZM129.246 251.249C132.691 254.032 138.689 255.255 144.788 245.823C151.677 235.166 149.002 228.221 138.947 233.236C126.912 239.238 124.324 247.278 129.246 251.249ZM167.643 264.087C171.706 266.002 177.85 265.839 181.295 255.314C185.183 243.422 180.772 237.292 172.329 244.419C162.212 252.959 161.813 261.339 167.643 264.087Z" stroke="white" stroke-width="2" stroke-miterlimit="10"/>
</svg>

<svg xmlns="http://www.w3.org/2000/svg" width="357" height="303" fill="none"><path stroke="#fff" stroke-miterlimit="10" stroke-width="2" d="M256.44 52.29s-2.366-3.516 12.465-20.463c14.832-16.946 44.975-1.008 44.975-1.008s-22.562-18.503-45.001-19.787c-22.439-1.284-38.36 27.53-40.966 35.497-2.61 7.957 3.866 6.224 11.49.11 7.624-6.112-3.54-44.398-3.54-44.398s-13.26 17.306-27.871 40.917C193.38 66.77 185.184 70.21 179.039 76.254c-6.135 6.04-19.185 10.907-26.206 8.83-7.02-2.077-23.891-22.038-50.889-24.002-26.999-1.964-49.695 8.33-49.695 8.33s24.392.635 36.571 7.153c12.18 6.518 9.532 18.032 16.812 19.562 7.28 1.53 15.949-13.1 3.761-12.328-12.189.773-46.106-.837-57.033 13.906C41.432 112.45 18.895 132.88.624 133.726c0 0 41.632 1.555 59.74-14.33 18.109-15.885 45.546-7.55 45.546-7.55l38.254-4.325s17.447-3.692 13.892-28.61c-3.554-24.917-1.287-45.157 4.001-46.05l16.166 2.519s-12.257 10.878-1.78 34.241c10.478 23.364 13.72 20.844 13.72 20.844m-16.297 10.562c14.746-6.087 40.501-36.657 69.166-46.326 37.922-12.788 88.335 6.313 108.148 71.563 18.245 60.088-18.588 132.756-101.211 160.696-95.1 32.154-161.084 11.341-194.381-61.534-25.718-56.312.053-97.4 28.1-108.618 25.934-10.376 62.419-4.321 90.178-15.781Zm-60.731 28.869c27.353-10.544 50.219-2.097 62.129 19.786 7.358 13.523 24.414 59.936 29.536 75.47 5.122 15.534 8.677 41.799-24.505 50.754-30.247 8.155-52.235.6-72.083-20.864-19.695-21.295-39.577-58.46-32.02-86.682 7.556-28.222 21.614-32.55 36.943-38.464Zm133.458-47.814c15.17-5.112 46.523-9.726 59.433 13.806 12.901 23.535 27.251 68.723 17.968 96.189-9.28 27.475-35.475 61.598-71.39 47.954-27.171-10.321-51.228-108.242-44.646-125.045 9.441-24.095 38.635-32.904 38.635-32.904Zm-108.917 59.91c-3.964 2.104-7.187 6.954.412 15.404 8.585 9.536 16.536 9.483 14.732-.981-2.147-12.523-9.479-17.43-15.144-14.423Zm96.125-33.987c-4.515.613-9.427 4.035-5.682 14.483 4.228 11.793 11.651 14.432 14.103 4.093 2.927-12.397-1.965-19.453-8.421-18.576Zm43.865-5.686c-4.352-1.279-10.383-.195-11.945 10.713-1.765 12.315 3.658 17.705 10.74 9.409 8.495-9.96 7.428-18.296 1.205-20.122Zm28.957 46.556c.128-4.236-2.657-9.318-14.392-7.689-13.249 1.829-17.335 8.157-6.778 12.177 12.656 4.82 20.992 1.571 21.17-4.488Zm-5.617 42.413c2.495-3.547 2.982-9.231-7.935-13.539-12.321-4.872-19.367-1.46-12.641 7.095 8.068 10.249 17.01 11.519 20.576 6.444ZM276.4 227.271c3.864-2.25 6.866-7.225-1.103-15.381-9.003-9.205-16.939-8.837-14.674 1.54 2.707 12.445 10.252 17.07 15.777 13.841Zm-173.138-64.13c-3.261 2.966-5.056 8.413 4.593 14.815 10.898 7.229 18.572 5.312 13.988-4.394-5.483-11.619-13.913-14.659-18.581-10.421Zm-3.588 51.722c.842 4.159 4.734 8.578 15.829 4.68 12.522-4.4 15.07-11.387 3.833-13.241-13.477-2.218-20.875 2.601-19.662 8.561Zm29.572 36.386c3.445 2.783 9.443 4.006 15.542-5.426 6.889-10.657 4.214-17.602-5.841-12.587-12.035 6.002-14.623 14.042-9.701 18.013Zm38.397 12.838c4.063 1.915 10.207 1.752 13.652-8.773 3.888-11.892-.523-18.022-8.966-10.895-10.117 8.54-10.516 16.92-4.686 19.668Z"/></svg>
